X:5035
T:The Devil's Elbow
M:4/4
L:1/8
Q:180
C:Aidan Crossey
R:Hornpipe
K:D
|:FG|(3ABA Bc (3dcd gf|(3efe af d2 cd|(3efe (3efe (3efe ed|(3cdc (3BcB AFGE|
(3DED FA (3dcd gf|(3efe af d2 cd|(3efe (3efe edcB|(3ABA (3GFE D2:||
|:FG|(3ABA fd (3BAB gB|(3cdc ac d2 FG|(3ABA FD (3BdB GE|(3cdc (3 ABc d2 fg|
(3aba fd (3gag cA|(3dcd (3efg (3faf e2|(3bab fd (3gag B2|(3cBA (3gec d2:||
